X: 19
T:Highland Lad. HS.19
T:White Cockade,aka. HS.19
M:2/4
Q:60
C:White Cockade,aka.
S:Henry Stables MS,Cumbria,late19thC
R:Scots Measure
O:Walthwaite,nr.Ambleside.
A:England
Z:vmp.Chris Partington
K:G
g|dB BG|BB Bg|dB BG|BA AG|BB (c/B/A/G/)|Bdg2|bg eg|dB B::!
B|dB gB|ddd2|dB gf/g/|aA AG|BB (c/B/A/G/)|Bdg2|bg eg|dB B:||
